build/img/icons/Clean.svg

<svg width="46" height="46" viewBox="0 0 46 46" fill="none" xmlns="http://www.w3.org/2000/svg">
<path fill-rule="evenodd" clip-rule="evenodd" d="M44.4402 14.2125H43.7372V14.9154C43.7372 15.3041 43.423 15.6183 43.0343 15.6183C42.6456 15.6183 42.3313 15.3041 42.3313 14.9154V14.2125H41.6284C41.2397 14.2125 40.9255 13.8976 40.9255 13.5096C40.9255 13.1216 41.2397 12.8067 41.6284 12.8067H42.3313V12.1037C42.3313 11.7157 42.6456 11.4008 43.0343 11.4008C43.423 11.4008 43.7372 11.7157 43.7372 12.1037V12.8067H44.4402C44.8289 12.8067 45.1431 13.1216 45.1431 13.5096C45.1431 13.8976 44.8289 14.2125 44.4402 14.2125ZM41.6284 27.9193C41.6284 27.338 42.1008 26.8649 42.6828 26.8649C43.2649 26.8649 43.7372 27.338 43.7372 27.9193C43.7372 28.5006 43.2649 28.9737 42.6828 28.9737C42.1008 28.9737 41.6284 28.5027 41.6284 27.9193ZM41.6284 38.8145V39.6489C42.2245 39.8597 42.6913 40.3328 42.905 40.9253H43.7372C44.126 40.9253 44.4402 41.2395 44.4402 41.6283C44.4402 42.017 44.126 42.3312 43.7372 42.3312H42.905C42.692 42.9272 42.221 43.394 41.6284 43.6077V44.4399C41.6284 44.8286 41.3142 45.1428 40.9255 45.1428C40.5367 45.1428 40.2225 44.8286 40.2225 44.4399V43.6063C39.6264 43.3933 39.1582 42.9223 38.9459 42.3298H38.1137C37.7249 42.3298 37.4107 42.0156 37.4107 41.6269C37.4107 41.2381 37.7249 40.9239 38.1137 40.9239H38.9459C39.1589 40.3307 39.6278 39.8583 40.2225 39.6474V38.8152C40.2225 38.4265 40.5367 38.1123 40.9255 38.1123C41.3142 38.1123 41.6284 38.4265 41.6284 38.8152V38.8145ZM40.2225 41.6261C40.2225 42.0156 40.5367 42.3291 40.9255 42.3291C41.3142 42.3291 41.6284 42.0156 41.6284 41.6261C41.6284 41.2367 41.3142 40.9232 40.9255 40.9232C40.5367 40.9232 40.2225 41.2381 40.2225 41.6261ZM34.5989 39.5174H11.4016C9.4615 39.5174 7.8869 37.945 7.8869 36.0028V9.995C7.8869 8.05355 9.4615 6.48043 11.4016 6.48043H34.5989C36.5405 6.48043 38.1137 8.05355 38.1137 9.995V36.0028C38.1137 37.9443 36.5405 39.5174 34.5989 39.5174ZM26.8665 7.88626H18.4311V12.8067H26.8665V7.88626ZM9.2928 31.7853H12.1046V26.8649H9.2928V31.7853ZM9.2928 19.1329H12.1046V14.2125H9.2928V19.1329ZM9.2928 20.5387V25.4591H17.0252V20.5387H9.2928ZM18.4311 38.1116H26.8665V33.1912H18.4311V38.1116ZM23.3518 26.8649V31.7853H31.7871V26.8649H23.3518ZM26.8665 25.4591V20.5387H18.4311V25.4591H26.8665ZM21.9459 31.7853V26.8649H13.5105V31.7853H21.9459ZM13.5105 19.1329H21.9459V14.2125H13.5105V19.1329ZM23.3518 14.2125V19.1329H31.7871V14.2125H23.3518ZM28.2724 20.5387V25.4591H36.7078V20.5387H28.2724ZM36.7078 26.8649H33.193V31.7853H36.7078V26.8649ZM33.193 19.1329H36.7078V14.2125H33.193V19.1329ZM36.7078 36.0028V33.1912H28.2724V38.1116H34.5989C35.763 38.1116 36.7078 37.1676 36.7078 36.0028ZM11.4016 38.1116H17.0252V33.1912H9.2928V36.0028C9.2928 37.1676 10.2369 38.1116 11.4016 38.1116ZM9.2928 9.995V12.8067H17.0252V7.88626H11.4016C10.2369 7.88626 9.2928 8.83027 9.2928 9.995ZM34.5989 7.88626H28.2724V12.8067H36.7078V9.995C36.7078 8.83027 35.763 7.88626 34.5989 7.88626ZM34.9504 3.66877C34.3684 3.66877 33.896 3.19782 33.896 2.6144C33.896 2.03239 34.3684 1.56003 34.9504 1.56003C35.5324 1.56003 36.0048 2.03239 36.0048 2.6144C36.0048 3.19642 35.5324 3.66877 34.9504 3.66877ZM7.18395 5.0746H6.35166C6.14078 5.66997 5.6684 6.13741 5.07511 6.3518V7.18335C5.07511 7.57135 4.76019 7.88626 4.37216 7.88626C3.98413 7.88626 3.66921 7.57135 3.66921 7.18335V6.3518C3.07311 6.13881 2.60565 5.66716 2.39266 5.0746H1.56037C1.17234 5.0746 0.857422 4.7597 0.857422 4.37169C0.857422 3.98368 1.17234 3.66877 1.56037 3.66877H2.39266C2.60565 3.07622 3.07311 2.60386 3.66921 2.39158V1.56003C3.66921 1.17202 3.98413 0.857117 4.37216 0.857117C4.76019 0.857117 5.07511 1.17202 5.07511 1.56003V2.39228C5.67121 2.60316 6.13867 3.07622 6.35166 3.66877H7.18395C7.57198 3.66877 7.8869 3.98368 7.8869 4.37169C7.8869 4.7597 7.57198 5.0746 7.18395 5.0746ZM4.37216 3.66877C3.98413 3.66877 3.66921 3.98368 3.66921 4.37169C3.66921 4.7597 3.98413 5.0746 4.37216 5.0746C4.76019 5.0746 5.07511 4.7597 5.07511 4.37169C5.07511 3.98368 4.76019 3.66877 4.37216 3.66877ZM2.61479 33.8941C3.19683 33.8941 3.66921 34.3672 3.66921 34.9485C3.66921 35.5298 3.19683 36.0028 2.61479 36.0028C2.03134 36.0028 1.56037 35.5319 1.56037 34.9485C1.56037 34.365 2.03134 33.8941 2.61479 33.8941ZM4.72364 19.1329C5.30708 19.1329 5.77806 19.6052 5.77806 20.1873C5.77806 20.7693 5.30708 21.2416 4.72364 21.2416C4.14019 21.2416 3.66921 20.7693 3.66921 20.1873C3.66921 19.6052 4.14019 19.1329 4.72364 19.1329ZM15.9708 41.6261C16.5528 41.6261 17.0252 42.0992 17.0252 42.6805C17.0252 43.2618 16.5528 43.7349 15.9708 43.7349C15.3888 43.7349 14.9164 43.2639 14.9164 42.6805C14.9164 42.0971 15.3888 41.6261 15.9708 41.6261Z" fill="#5CC773"/>
</svg>

<svg width="46" height="46" fill="none" xmlns="http://www.w3.org/2000/svg">
    <path fill-rule="evenodd" clip-rule="evenodd" d="M44.44 14.213h-.703v.702a.702.702 0 1 1-1.406 0v-.702h-.703a.703.703 0 1 1 0-1.406h.703v-.703a.703.703 0 1 1 1.406 0v.703h.703a.703.703 0 1 1 0 1.405zm-2.812 13.706a1.055 1.055 0 1 1 2.11.002 1.055 1.055 0 0 1-2.11-.002zm0 10.896v.834c.596.21 1.063.684 1.277 1.276h.832a.702.702 0 1 1 0 1.406h-.832a2.118 2.118 0 0 1-1.277 1.277v.832a.702.702 0 1 1-1.406 0v-.834a2.114 2.114 0 0 1-1.276-1.276h-.832a.702.702 0 1 1 0-1.406h.832a2.112 2.112 0 0 1 1.276-1.277v-.832a.702.702 0 1 1 1.406 0zm-1.406 2.811a.702.702 0 1 0 1.406 0 .702.702 0 1 0-1.406 0zM34.6 39.517H11.402a3.515 3.515 0 0 1-3.515-3.514V9.995a3.515 3.515 0 0 1 3.515-3.515h23.197a3.514 3.514 0 0 1 3.515 3.515v26.008a3.514 3.514 0 0 1-3.515 3.514zm-7.732-31.63H18.43v4.92h8.435v-4.92zM9.292 31.784h2.812v-4.92H9.293v4.92zm0-12.652h2.812v-4.92H9.293v4.92zm0 1.406v4.92h7.732v-4.92H9.293zm9.138 17.573h8.435v-4.92h-8.435v4.92zm4.92-11.247v4.92h8.436v-4.92h-8.435zm3.515-1.406v-4.92h-8.435v4.92h8.435zm-4.92 6.326v-4.92H13.51v4.92h8.436zM13.51 19.133h8.436v-4.92H13.51v4.92zm9.842-4.92v4.92h8.435v-4.92h-8.435zm4.92 6.326v4.92h8.436v-4.92h-8.436zm8.436 6.326h-3.515v4.92h3.515v-4.92zm-3.515-7.732h3.515v-4.92h-3.515v4.92zm3.515 16.87V33.19h-8.436v4.92H34.6a2.11 2.11 0 0 0 2.109-2.108zm-25.306 2.109h5.623v-4.92H9.293v2.81c0 1.166.944 2.11 2.109 2.11zM9.292 9.995v2.812h7.733v-4.92h-5.623a2.109 2.109 0 0 0-2.11 2.108zM34.6 7.886h-6.327v4.92h8.436V9.996a2.11 2.11 0 0 0-2.11-2.109zm.351-4.217a1.054 1.054 0 1 1 0-2.108 1.054 1.054 0 0 1 0 2.108zM7.184 5.075h-.832a2.115 2.115 0 0 1-1.277 1.277v.831a.703.703 0 0 1-1.406 0v-.831a2.117 2.117 0 0 1-1.276-1.277H1.56a.703.703 0 0 1 0-1.406h.833a2.115 2.115 0 0 1 1.276-1.277V1.56a.703.703 0 0 1 1.406 0v.832A2.11 2.11 0 0 1 6.352 3.67h.832a.703.703 0 0 1 0 1.406zM4.372 3.669a.703.703 0 1 0 0 1.406.703.703 0 0 0 0-1.406zM2.615 33.894a1.055 1.055 0 1 1-.002 2.11 1.055 1.055 0 0 1 .002-2.11zm2.109-14.761a1.054 1.054 0 1 1 0 2.108 1.054 1.054 0 0 1 0-2.108zM15.97 41.626a1.055 1.055 0 1 1-.002 2.11 1.055 1.055 0 0 1 .002-2.11z" fill="#5CC773"/>
</svg>
